src/pos-icons/leaf.svg

<svg height="24" viewBox="0 0 24 24" width="24" xmlns="http://www.w3.org/2000/svg"><path d="m17 8c-9 2-11.1 8.17-13.18 13.34l1.89.66.95-2.3c.48.17.98.3 1.34.3 11 0 14-17 14-17-1 2-8 2.25-13 3.25s-7 5.25-7 7.25 1.75 3.75 1.75 3.75c3.25-9.25 13.25-9.25 13.25-9.25z"/></svg>

<?xml version="1.0" encoding="UTF-8"?><!DOCTYPE svg PUBLIC "-//W3C//DTD SVG 1.1//EN" "http://www.w3.org/Graphics/SVG/1.1/DTD/svg11.dtd"><svg xmlns="http://www.w3.org/2000/svg" xmlns:xlink="http://www.w3.org/1999/xlink" version="1.1" id="mdi-leaf" width="24" height="24" viewBox="0 0 24 24"><path d="M17,8C8,10 5.9,16.17 3.82,21.34L5.71,22L6.66,19.7C7.14,19.87 7.64,20 8,20C19,20 22,3 22,3C21,5 14,5.25 9,6.25C4,7.25 2,11.5 2,13.5C2,15.5 3.75,17.25 3.75,17.25C7,8 17,8 17,8Z" /></svg>
